X: 26554
T: Mick Carr's
R: barndance
M: 4/4
K: Gmajor
|:B>c|d>ed>c B>GB>c|d>e (3dcB g2 A>B|c>dc>B A>FA>B|c>d (3cBA d2 B>c|
d>ed>c B>GB>c|d>e (3dcB g2 f>g|e>a (3gfe d>cB>A|(3GAG F>A G2:|
|:(3GFE|D2 G>B d4|e>dc>B c4|(3DED F>A c>Bc>d|f>ed>c B>^AB>G|
D2 G>B d2 d2|e>dc>B c2 c2|D2 F>G A>cB>A|(3GAG F>A G2:|

